suite-common/icons/assets/icons/trendDown.svg

<svg xmlns="http://www.w3.org/2000/svg" viewBox="0 0 17 16">
  <path fill-rule="evenodd" d="M1.945 3.8c-.26.137-.499.482-.5.721 0 .173.101.307.729.964.652.683 3.912 3.925 4.152 4.13.246.21.461.234.727.082.069-.039.593-.535 1.164-1.102l1.04-1.03 2.058 2.068c1.132 1.138 2.058 2.079 2.058 2.092 0 .023-1.236.062-1.995.062-.439 0-.541.024-.678.157-.154.15-.198.271-.199.551-.001.372.111.588.365.698.103.045.322.052 2.328.074l2.216.024.164-.084a1 1 0 0 0 .227-.15c.096-.103.215-.386.216-.516.001-.064-.009-1.06-.022-2.214-.025-2.247-.017-2.149-.173-2.335-.143-.169-.264-.207-.619-.196-.361.012-.459.051-.591.239-.072.102-.083.15-.106.452-.015.187-.027.758-.027 1.27l-.001.931-2.316-2.303a205 205 0 0 0-2.506-2.466c-.218-.188-.358-.228-.578-.167-.154.043-.341.215-1.52 1.386l-.815.809-1.551-1.545c-2.056-2.049-2.6-2.574-2.714-2.622a.76.76 0 0 0-.533.02"/>
</svg>

<svg xmlns="http://www.w3.org/2000/svg" viewBox="0 0 17 16"><path d="M1.945 3.800 C 1.685 3.937,1.446 4.282,1.445 4.521 C 1.445 4.694,1.546 4.828,2.174 5.485 C 2.826 6.168,6.086 9.410,6.326 9.615 C 6.572 9.825,6.787 9.849,7.053 9.697 C 7.122 9.658,7.646 9.162,8.217 8.595 L 9.257 7.565 11.315 9.633 C 12.447 10.771,13.373 11.712,13.373 11.725 C 13.373 11.748,12.137 11.787,11.378 11.787 C 10.939 11.787,10.837 11.811,10.700 11.944 C 10.546 12.094,10.502 12.215,10.501 12.495 C 10.500 12.867,10.612 13.083,10.866 13.193 C 10.969 13.238,11.188 13.245,13.194 13.267 L 15.410 13.291 15.574 13.207 C 15.665 13.162,15.767 13.094,15.801 13.057 C 15.897 12.954,16.016 12.671,16.017 12.541 C 16.018 12.477,16.008 11.481,15.995 10.327 C 15.970 8.080,15.978 8.178,15.822 7.992 C 15.679 7.823,15.558 7.785,15.203 7.796 C 14.842 7.808,14.744 7.847,14.612 8.035 C 14.540 8.137,14.529 8.185,14.506 8.487 C 14.491 8.674,14.479 9.245,14.479 9.757 L 14.478 10.688 12.162 8.385 C 10.888 7.119,9.760 6.009,9.656 5.919 C 9.438 5.731,9.298 5.691,9.078 5.752 C 8.924 5.795,8.737 5.967,7.558 7.138 L 6.743 7.947 5.192 6.402 C 3.136 4.353,2.592 3.828,2.478 3.780 C 2.337 3.721,2.076 3.731,1.945 3.800 " stroke="none" fill-rule="evenodd" fill="black"></path></svg>
